X: 15032
T: My Love's in the Broom
%R: air, march
B: James Oswald "The Caledonian Pocket Companion" v.1 b.5 p.3 #2
S: https://ia800501.us.archive.org/18/items/caledonianpocket01rugg/caledonianpocket01rugg_bw.pdf
Z: 2020 John Chambers <jc:trillian.mit.edu>
N: Initial rest added to fix the rhythm of repeats.
M: C
L: 1/8
K: G
"_Slow"z |  G2(AB) gedB | (AG)(AB) a3b | G2AB gedB | (AGA)B g3 :|
|: a | bgae gdeB | (AGAB) a3g/a/ | (b/a/g) ae (g/e/d/e/) gB | (AGA)B g3 :|


